X:13
T:Iron Legs
C:Trad.
M:4/4
R:scottische
K:D
AG|F2A2 A2Bc|d2A2 A2A2|B2c2 d2ed|cdBc A2AG|\
   F2A2 A2Bc|d2A2 A2A2|Bcde fedc|d4 d2:|
g2|fgfg efef|fgfg efef|dede cdcd|dede cdcd|\
   BcBc ABAB|BcBc ABAB|Bcde fedc|d4 d2:|

